images/29651.svg

<?xml version="1.0" encoding="UTF-8"?>
<svg xmlns="http://www.w3.org/2000/svg" xmlns:xlink="http://www.w3.org/1999/xlink" width="300pt" height="300pt" viewBox="0 0 300 300" version="1.1">
<defs>
<g>
<symbol overflow="visible" id="glyph0-0">
<path style="stroke:none;" d="M 0.796875 2.828125 L 0.796875 -11.28125 L 8.796875 -11.28125 L 8.796875 2.828125 Z M 1.703125 1.9375 L 7.90625 1.9375 L 7.90625 -10.390625 L 1.703125 -10.390625 Z M 1.703125 1.9375 "/>
</symbol>
<symbol overflow="visible" id="glyph0-1">
<path style="stroke:none;" d="M 1.578125 -11.671875 L 8.28125 -11.671875 L 8.28125 -10.34375 L 3.15625 -10.34375 L 3.15625 -6.90625 L 7.78125 -6.90625 L 7.78125 -5.578125 L 3.15625 -5.578125 L 3.15625 0 L 1.578125 0 Z M 1.578125 -11.671875 "/>
</symbol>
<symbol overflow="visible" id="glyph0-2">
<path style="stroke:none;" d="M 1.578125 -11.671875 L 3.703125 -11.671875 L 8.875 -1.90625 L 8.875 -11.671875 L 10.40625 -11.671875 L 10.40625 0 L 8.28125 0 L 3.109375 -9.765625 L 3.109375 0 L 1.578125 0 Z M 1.578125 -11.671875 "/>
</symbol>
<symbol overflow="visible" id="glyph0-3">
<path style="stroke:none;" d="M 6.3125 -10.59375 C 5.164062 -10.59375 4.253906 -10.164062 3.578125 -9.3125 C 2.898438 -8.457031 2.5625 -7.296875 2.5625 -5.828125 C 2.5625 -4.359375 2.898438 -3.195312 3.578125 -2.34375 C 4.253906 -1.488281 5.164062 -1.0625 6.3125 -1.0625 C 7.457031 -1.0625 8.363281 -1.488281 9.03125 -2.34375 C 9.695312 -3.195312 10.03125 -4.359375 10.03125 -5.828125 C 10.03125 -7.296875 9.695312 -8.457031 9.03125 -9.3125 C 8.363281 -10.164062 7.457031 -10.59375 6.3125 -10.59375 Z M 6.3125 -11.875 C 7.945312 -11.875 9.253906 -11.328125 10.234375 -10.234375 C 11.210938 -9.140625 11.703125 -7.671875 11.703125 -5.828125 C 11.703125 -3.984375 11.210938 -2.507812 10.234375 -1.40625 C 9.253906 -0.3125 7.945312 0.234375 6.3125 0.234375 C 4.664062 0.234375 3.351562 -0.3125 2.375 -1.40625 C 1.394531 -2.507812 0.90625 -3.984375 0.90625 -5.828125 C 0.90625 -7.671875 1.394531 -9.140625 2.375 -10.234375 C 3.351562 -11.328125 4.664062 -11.875 6.3125 -11.875 Z M 6.3125 -11.875 "/>
</symbol>
</g>
</defs>
<g id="surface15057">
<rect x="0" y="0" width="300" height="300" style="fill:rgb(100%,100%,100%);fill-opacity:1;stroke:none;"/>
<path style="fill:none;stroke-width:1.2;stroke-linecap:butt;stroke-linejoin:miter;stroke:rgb(20%,80%,80%);stroke-opacity:1;stroke-miterlimit:10;" d="M 43.894531 209.695312 L 59.582031 198.757812 "/>
<path style="fill:none;stroke-width:1.2;stroke-linecap:butt;stroke-linejoin:miter;stroke:rgb(0%,0%,0%);stroke-opacity:1;stroke-miterlimit:10;" d="M 59.582031 198.757812 L 75.273438 187.824219 "/>
<path style=" stroke:none;fill-rule:nonzero;fill:rgb(100%,100%,100%);fill-opacity:1;" d="M 33.894531 200.195312 L 43.894531 200.195312 L 43.894531 219.195312 L 33.894531 219.195312 Z M 33.894531 200.195312 "/>
<g style="fill:rgb(20%,80%,80%);fill-opacity:1;">
  <use xlink:href="#glyph0-1" x="33.894531" y="215.046875"/>
</g>
<path style="fill:none;stroke-width:1.2;stroke-linecap:butt;stroke-linejoin:miter;stroke:rgb(0%,0%,0%);stroke-opacity:1;stroke-miterlimit:10;" d="M 75.273438 187.824219 L 92.589844 195.941406 "/>
<path style="fill:none;stroke-width:1.2;stroke-linecap:butt;stroke-linejoin:miter;stroke:rgb(20%,80%,80%);stroke-opacity:1;stroke-miterlimit:10;" d="M 92.589844 195.941406 L 109.90625 204.0625 "/>
<path style="fill:none;stroke-width:1.2;stroke-linecap:butt;stroke-linejoin:miter;stroke:rgb(0%,0%,0%);stroke-opacity:1;stroke-miterlimit:10;" d="M 75.273438 187.824219 L 72.023438 149.710938 "/>
<path style=" stroke:none;fill-rule:nonzero;fill:rgb(100%,100%,100%);fill-opacity:1;" d="M 104.90625 194.5625 L 114.90625 194.5625 L 114.90625 213.5625 L 104.90625 213.5625 Z M 104.90625 194.5625 "/>
<g style="fill:rgb(20%,80%,80%);fill-opacity:1;">
  <use xlink:href="#glyph0-1" x="104.90625" y="209.414062"/>
</g>
<path style="fill:none;stroke-width:1.2;stroke-linecap:butt;stroke-linejoin:miter;stroke:rgb(0%,0%,0%);stroke-opacity:1;stroke-miterlimit:10;" d="M 72.023438 149.710938 L 86.484375 137.195312 "/>
<path style="fill:none;stroke-width:1.2;stroke-linecap:butt;stroke-linejoin:miter;stroke:rgb(0%,0%,100%);stroke-opacity:1;stroke-miterlimit:10;" d="M 86.484375 137.195312 L 100.945312 124.679688 "/>
<path style="fill:none;stroke-width:1.2;stroke-linecap:butt;stroke-linejoin:miter;stroke:rgb(0%,0%,100%);stroke-opacity:1;stroke-miterlimit:10;" d="M 39.28125 129.9375 L 55.652344 139.824219 "/>
<path style="fill:none;stroke-width:1.2;stroke-linecap:butt;stroke-linejoin:miter;stroke:rgb(0%,0%,0%);stroke-opacity:1;stroke-miterlimit:10;" d="M 55.652344 139.824219 L 72.023438 149.710938 "/>
<path style="fill:none;stroke-width:1.2;stroke-linecap:butt;stroke-linejoin:miter;stroke:rgb(0%,0%,100%);stroke-opacity:1;stroke-miterlimit:10;" d="M 47.207031 124.210938 L 60.304688 132.121094 "/>
<path style="fill:none;stroke-width:1.2;stroke-linecap:butt;stroke-linejoin:miter;stroke:rgb(0%,0%,0%);stroke-opacity:1;stroke-miterlimit:10;" d="M 60.304688 132.121094 L 73.402344 140.03125 "/>
<path style="fill:none;stroke-width:1.2;stroke-linecap:butt;stroke-linejoin:miter;stroke:rgb(0%,0%,100%);stroke-opacity:1;stroke-miterlimit:10;" d="M 100.945312 124.679688 L 119.921875 127.050781 "/>
<path style="fill:none;stroke-width:1.2;stroke-linecap:butt;stroke-linejoin:miter;stroke:rgb(0%,0%,0%);stroke-opacity:1;stroke-miterlimit:10;" d="M 119.921875 127.050781 L 138.902344 129.425781 "/>
<path style="fill:none;stroke-width:1.2;stroke-linecap:butt;stroke-linejoin:miter;stroke:rgb(0%,0%,0%);stroke-opacity:1;stroke-miterlimit:10;" d="M 86.078125 89.4375 L 93.511719 107.058594 "/>
<path style="fill:none;stroke-width:1.2;stroke-linecap:butt;stroke-linejoin:miter;stroke:rgb(0%,0%,100%);stroke-opacity:1;stroke-miterlimit:10;" d="M 93.511719 107.058594 L 100.945312 124.679688 "/>
<path style=" stroke:none;fill-rule:nonzero;fill:rgb(100%,100%,100%);fill-opacity:1;" d="M 94.945312 115.179688 L 106.945312 115.179688 L 106.945312 134.179688 L 94.945312 134.179688 Z M 94.945312 115.179688 "/>
<g style="fill:rgb(0%,0%,100%);fill-opacity:1;">
  <use xlink:href="#glyph0-2" x="94.945312" y="130.03125"/>
</g>
<path style="fill:none;stroke-width:1.2;stroke-linecap:butt;stroke-linejoin:miter;stroke:rgb(0%,0%,0%);stroke-opacity:1;stroke-miterlimit:10;" d="M 138.902344 129.425781 L 161.988281 98.925781 "/>
<path style="fill:none;stroke-width:1.2;stroke-linecap:butt;stroke-linejoin:miter;stroke:rgb(0%,0%,0%);stroke-opacity:1;stroke-miterlimit:10;" d="M 134.035156 120.941406 L 152.503906 96.546875 "/>
<path style="fill:none;stroke-width:1.2;stroke-linecap:butt;stroke-linejoin:miter;stroke:rgb(0%,0%,0%);stroke-opacity:1;stroke-miterlimit:10;" d="M 161.988281 98.925781 L 147.117188 63.683594 "/>
<path style="fill:none;stroke-width:1.2;stroke-linecap:butt;stroke-linejoin:miter;stroke:rgb(0%,0%,0%);stroke-opacity:1;stroke-miterlimit:10;" d="M 161.988281 98.925781 L 199.941406 103.671875 "/>
<path style="fill:none;stroke-width:1.2;stroke-linecap:butt;stroke-linejoin:miter;stroke:rgb(0%,0%,0%);stroke-opacity:1;stroke-miterlimit:10;" d="M 147.117188 63.683594 L 109.164062 58.941406 "/>
<path style="fill:none;stroke-width:1.2;stroke-linecap:butt;stroke-linejoin:miter;stroke:rgb(0%,0%,0%);stroke-opacity:1;stroke-miterlimit:10;" d="M 142.207031 72.140625 L 111.84375 68.347656 "/>
<path style="fill:none;stroke-width:1.2;stroke-linecap:butt;stroke-linejoin:miter;stroke:rgb(0%,0%,0%);stroke-opacity:1;stroke-miterlimit:10;" d="M 109.164062 58.941406 L 86.078125 89.4375 "/>
<path style="fill:none;stroke-width:1.2;stroke-linecap:butt;stroke-linejoin:miter;stroke:rgb(0%,0%,0%);stroke-opacity:1;stroke-miterlimit:10;" d="M 86.078125 89.4375 L 67.023438 91.0625 "/>
<path style="fill:none;stroke-width:1.2;stroke-linecap:butt;stroke-linejoin:miter;stroke:rgb(0%,0%,100%);stroke-opacity:1;stroke-miterlimit:10;" d="M 67.023438 91.0625 L 47.964844 92.6875 "/>
<path style="fill:none;stroke-width:1.2;stroke-linecap:butt;stroke-linejoin:miter;stroke:rgb(0%,0%,0%);stroke-opacity:1;stroke-miterlimit:10;" d="M 83.03125 98.730469 L 67.785156 100.03125 "/>
<path style="fill:none;stroke-width:1.2;stroke-linecap:butt;stroke-linejoin:miter;stroke:rgb(0%,0%,100%);stroke-opacity:1;stroke-miterlimit:10;" d="M 67.785156 100.03125 L 52.542969 101.332031 "/>
<path style="fill:none;stroke-width:1.2;stroke-linecap:butt;stroke-linejoin:miter;stroke:rgb(0%,0%,100%);stroke-opacity:1;stroke-miterlimit:10;" d="M 47.964844 92.6875 L 39.28125 129.9375 "/>
<path style=" stroke:none;fill-rule:nonzero;fill:rgb(100%,100%,100%);fill-opacity:1;" d="M 41.964844 83.1875 L 53.964844 83.1875 L 53.964844 102.1875 L 41.964844 102.1875 Z M 41.964844 83.1875 "/>
<g style="fill:rgb(0%,0%,100%);fill-opacity:1;">
  <use xlink:href="#glyph0-2" x="41.964844" y="98.039062"/>
</g>
<path style=" stroke:none;fill-rule:nonzero;fill:rgb(100%,100%,100%);fill-opacity:1;" d="M 33.28125 120.4375 L 45.28125 120.4375 L 45.28125 139.4375 L 33.28125 139.4375 Z M 33.28125 120.4375 "/>
<g style="fill:rgb(0%,0%,100%);fill-opacity:1;">
  <use xlink:href="#glyph0-2" x="33.28125" y="135.289062"/>
</g>
<path style="fill:none;stroke-width:1.2;stroke-linecap:butt;stroke-linejoin:miter;stroke:rgb(0%,0%,0%);stroke-opacity:1;stroke-miterlimit:10;" d="M 199.941406 103.671875 L 213.015625 89.714844 "/>
<path style="fill:none;stroke-width:1.2;stroke-linecap:butt;stroke-linejoin:miter;stroke:rgb(100%,0%,0%);stroke-opacity:1;stroke-miterlimit:10;" d="M 213.015625 89.714844 L 226.089844 75.753906 "/>
<path style="fill:none;stroke-width:1.2;stroke-linecap:butt;stroke-linejoin:miter;stroke:rgb(0%,0%,0%);stroke-opacity:1;stroke-miterlimit:10;" d="M 218.414062 137.167969 L 199.941406 103.671875 "/>
<path style="fill:none;stroke-width:1.2;stroke-linecap:butt;stroke-linejoin:miter;stroke:rgb(0%,0%,0%);stroke-opacity:1;stroke-miterlimit:10;" d="M 224.445312 129.472656 L 209.667969 102.675781 "/>
<path style="fill:none;stroke-width:1.2;stroke-linecap:butt;stroke-linejoin:miter;stroke:rgb(100%,0%,0%);stroke-opacity:1;stroke-miterlimit:10;" d="M 226.089844 75.753906 L 243.40625 83.875 "/>
<path style="fill:none;stroke-width:1.2;stroke-linecap:butt;stroke-linejoin:miter;stroke:rgb(0%,0%,0%);stroke-opacity:1;stroke-miterlimit:10;" d="M 243.40625 83.875 L 260.71875 91.996094 "/>
<path style=" stroke:none;fill-rule:nonzero;fill:rgb(100%,100%,100%);fill-opacity:1;" d="M 220.089844 66.253906 L 233.089844 66.253906 L 233.089844 85.253906 L 220.089844 85.253906 Z M 220.089844 66.253906 "/>
<g style="fill:rgb(100%,0%,0%);fill-opacity:1;">
  <use xlink:href="#glyph0-3" x="220.089844" y="81.105469"/>
</g>
<path style="fill:none;stroke-width:1.2;stroke-linecap:butt;stroke-linejoin:miter;stroke:rgb(0%,0%,0%);stroke-opacity:1;stroke-miterlimit:10;" d="M 260.71875 91.996094 L 258.347656 110.972656 "/>
<path style="fill:none;stroke-width:1.2;stroke-linecap:butt;stroke-linejoin:miter;stroke:rgb(0%,0%,100%);stroke-opacity:1;stroke-miterlimit:10;" d="M 258.347656 110.972656 L 255.976562 129.949219 "/>
<path style="fill:none;stroke-width:1.2;stroke-linecap:butt;stroke-linejoin:miter;stroke:rgb(0%,0%,0%);stroke-opacity:1;stroke-miterlimit:10;" d="M 251.316406 94.675781 L 249.417969 109.855469 "/>
<path style="fill:none;stroke-width:1.2;stroke-linecap:butt;stroke-linejoin:miter;stroke:rgb(0%,0%,100%);stroke-opacity:1;stroke-miterlimit:10;" d="M 249.417969 109.855469 L 247.519531 125.039062 "/>
<path style="fill:none;stroke-width:1.2;stroke-linecap:butt;stroke-linejoin:miter;stroke:rgb(0%,0%,100%);stroke-opacity:1;stroke-miterlimit:10;" d="M 255.976562 129.949219 L 237.195312 133.558594 "/>
<path style="fill:none;stroke-width:1.2;stroke-linecap:butt;stroke-linejoin:miter;stroke:rgb(0%,0%,0%);stroke-opacity:1;stroke-miterlimit:10;" d="M 237.195312 133.558594 L 218.414062 137.167969 "/>
<path style=" stroke:none;fill-rule:nonzero;fill:rgb(100%,100%,100%);fill-opacity:1;" d="M 249.976562 120.449219 L 261.976562 120.449219 L 261.976562 139.449219 L 249.976562 139.449219 Z M 249.976562 120.449219 "/>
<g style="fill:rgb(0%,0%,100%);fill-opacity:1;">
  <use xlink:href="#glyph0-2" x="249.976562" y="135.300781"/>
</g>
<path style="fill:none;stroke-width:1.2;stroke-linecap:butt;stroke-linejoin:miter;stroke:rgb(0%,0%,0%);stroke-opacity:1;stroke-miterlimit:10;" d="M 218.414062 137.167969 L 202.171875 171.796875 "/>
<path style="fill:none;stroke-width:1.2;stroke-linecap:butt;stroke-linejoin:miter;stroke:rgb(0%,0%,0%);stroke-opacity:1;stroke-miterlimit:10;" d="M 202.171875 171.796875 L 164.058594 175.046875 "/>
<path style="fill:none;stroke-width:1.2;stroke-linecap:butt;stroke-linejoin:miter;stroke:rgb(0%,0%,0%);stroke-opacity:1;stroke-miterlimit:10;" d="M 199.125 181.089844 L 168.636719 183.691406 "/>
<path style="fill:none;stroke-width:1.2;stroke-linecap:butt;stroke-linejoin:miter;stroke:rgb(0%,0%,0%);stroke-opacity:1;stroke-miterlimit:10;" d="M 224.042969 203.179688 L 202.171875 171.796875 "/>
<path style="fill:none;stroke-width:1.2;stroke-linecap:butt;stroke-linejoin:miter;stroke:rgb(0%,0%,0%);stroke-opacity:1;stroke-miterlimit:10;" d="M 164.058594 175.046875 L 147.820312 209.679688 "/>
<path style="fill:none;stroke-width:1.2;stroke-linecap:butt;stroke-linejoin:miter;stroke:rgb(0%,0%,0%);stroke-opacity:1;stroke-miterlimit:10;" d="M 147.820312 209.679688 L 169.6875 241.058594 "/>
<path style="fill:none;stroke-width:1.2;stroke-linecap:butt;stroke-linejoin:miter;stroke:rgb(0%,0%,0%);stroke-opacity:1;stroke-miterlimit:10;" d="M 157.390625 207.671875 L 174.886719 232.773438 "/>
<path style="fill:none;stroke-width:1.2;stroke-linecap:butt;stroke-linejoin:miter;stroke:rgb(0%,0%,0%);stroke-opacity:1;stroke-miterlimit:10;" d="M 169.6875 241.058594 L 207.800781 237.808594 "/>
<path style="fill:none;stroke-width:1.2;stroke-linecap:butt;stroke-linejoin:miter;stroke:rgb(0%,0%,0%);stroke-opacity:1;stroke-miterlimit:10;" d="M 207.800781 237.808594 L 224.042969 203.179688 "/>
<path style="fill:none;stroke-width:1.2;stroke-linecap:butt;stroke-linejoin:miter;stroke:rgb(0%,0%,0%);stroke-opacity:1;stroke-miterlimit:10;" d="M 201.277344 230.523438 L 214.269531 202.820312 "/>
</g>
</svg>

<svg xmlns="http://www.w3.org/2000/svg" xmlns:xlink="http://www.w3.org/1999/xlink" width="300pt" height="300pt" viewBox="0 0 300 300"><defs><symbol overflow="visible"><path d="M.797 2.828v-14.11h8V2.83zm.906-.89h6.203v-12.33H1.703zm0 0"/></symbol><symbol overflow="visible" id="a"><path d="M1.578-11.672H8.28v1.328H3.157v3.438H7.78v1.328H3.157V0H1.578zm0 0"/></symbol><symbol overflow="visible" id="b"><path d="M1.578-11.672h2.125l5.172 9.766v-9.766h1.53V0H8.282L3.11-9.766V0H1.577zm0 0"/></symbol><symbol overflow="visible" id="c"><path d="M6.313-10.594c-1.15 0-2.06.43-2.735 1.28-.68.857-1.015 2.017-1.015 3.486 0 1.47.335 2.633 1.015 3.484.676.856 1.586 1.28 2.735 1.28 1.144.002 2.05-.424 2.718-1.28.665-.85 1-2.015 1-3.484 0-1.47-.335-2.63-1-3.484-.667-.852-1.573-1.282-2.717-1.282zm0-1.28c1.632 0 2.94.546 3.92 1.64.978 1.093 1.47 2.562 1.47 4.406 0 1.844-.492 3.32-1.47 4.422-.98 1.093-2.288 1.64-3.92 1.64-1.65 0-2.96-.546-3.938-1.64-.98-1.102-1.47-2.578-1.47-4.422 0-1.844.49-3.313 1.47-4.406.977-1.094 2.29-1.64 3.938-1.64zm0 0"/></symbol></defs><g><path fill="#fff" d="M0 0h300v300H0z"/><path d="M43.895 209.695l15.687-10.937" stroke-width="1.2" stroke="#3cc" stroke-miterlimit="10" fill="none"/><path d="M59.582 198.758l15.69-10.934" stroke-width="1.2" stroke="#000" stroke-miterlimit="10" fill="none"/><path d="M33.895 200.195h10v19h-10zm0 0" fill="#fff"/><use xlink:href="#a" x="33.895" y="215.047" fill="#3cc"/><path d="M75.273 187.824l17.317 8.117" stroke-width="1.2" stroke="#000" stroke-miterlimit="10" fill="none"/><path d="M92.59 195.94l17.316 8.123" stroke-width="1.2" stroke="#3cc" stroke-miterlimit="10" fill="none"/><path d="M75.273 187.824l-3.25-38.113" stroke-width="1.2" stroke="#000" stroke-miterlimit="10" fill="none"/><path d="M104.906 194.563h10v19h-10zm0 0" fill="#fff"/><use xlink:href="#a" x="104.906" y="209.414" fill="#3cc"/><path d="M72.023 149.71l14.46-12.515" stroke-width="1.2" stroke="#000" stroke-miterlimit="10" fill="none"/><path d="M86.484 137.195l14.46-12.515M39.28 129.938l16.372 9.886" stroke-width="1.2" stroke="#00f" stroke-miterlimit="10" fill="none"/><path d="M55.652 139.824l16.37 9.887" stroke-width="1.2" stroke="#000" stroke-miterlimit="10" fill="none"/><path d="M47.207 124.21l13.098 7.91" stroke-width="1.2" stroke="#00f" stroke-miterlimit="10" fill="none"/><path d="M60.305 132.12l13.097 7.91" stroke-width="1.2" stroke="#000" stroke-miterlimit="10" fill="none"/><path d="M100.945 124.68l18.977 2.37" stroke-width="1.2" stroke="#00f" stroke-miterlimit="10" fill="none"/><path d="M119.922 127.05l18.98 2.376M86.078 89.438l7.434 17.62" stroke-width="1.2" stroke="#000" stroke-miterlimit="10" fill="none"/><path d="M93.512 107.06l7.433 17.62" stroke-width="1.2" stroke="#00f" stroke-miterlimit="10" fill="none"/><path d="M94.945 115.18h12v19h-12zm0 0" fill="#fff"/><use xlink:href="#b" x="94.945" y="130.031" fill="#00f"/><path d="M138.902 129.426l23.086-30.5M134.035 120.94l18.47-24.393M161.988 98.926l-14.87-35.242M161.988 98.926l37.953 4.746M147.117 63.684l-37.953-4.743M142.207 72.14l-30.363-3.792M109.164 58.94L86.078 89.44M86.078 89.438L67.023 91.06" stroke-width="1.2" stroke="#000" stroke-miterlimit="10" fill="none"/><path d="M67.023 91.063l-19.058 1.624" stroke-width="1.2" stroke="#00f" stroke-miterlimit="10" fill="none"/><path d="M83.03 98.73l-15.245 1.3" stroke-width="1.2" stroke="#000" stroke-miterlimit="10" fill="none"/><path d="M67.785 100.03l-15.242 1.302M47.965 92.688l-8.684 37.25" stroke-width="1.2" stroke="#00f" stroke-miterlimit="10" fill="none"/><path d="M41.965 83.188h12v19h-12zm0 0" fill="#fff"/><use xlink:href="#b" x="41.965" y="98.039" fill="#00f"/><path d="M33.28 120.438h12v19h-12zm0 0" fill="#fff"/><use xlink:href="#b" x="33.281" y="135.289" fill="#00f"/><path d="M199.94 103.672l13.076-13.957" stroke-width="1.2" stroke="#000" stroke-miterlimit="10" fill="none"/><path d="M213.016 89.715l13.074-13.96" stroke-width="1.2" stroke="#f00" stroke-miterlimit="10" fill="none"/><path d="M218.414 137.168l-18.473-33.496M224.445 129.473l-14.777-26.797" stroke-width="1.2" stroke="#000" stroke-miterlimit="10" fill="none"/><path d="M226.09 75.754l17.316 8.12" stroke-width="1.2" stroke="#f00" stroke-miterlimit="10" fill="none"/><path d="M243.406 83.875l17.313 8.12" stroke-width="1.2" stroke="#000" stroke-miterlimit="10" fill="none"/><path d="M220.09 66.254h13v19h-13zm0 0" fill="#fff"/><use xlink:href="#c" x="220.09" y="81.105" fill="#f00"/><path d="M260.72 91.996l-2.372 18.977" stroke-width="1.2" stroke="#000" stroke-miterlimit="10" fill="none"/><path d="M258.348 110.973l-2.37 18.976" stroke-width="1.2" stroke="#00f" stroke-miterlimit="10" fill="none"/><path d="M251.316 94.676l-1.898 15.18" stroke-width="1.2" stroke="#000" stroke-miterlimit="10" fill="none"/><path d="M249.418 109.855l-1.898 15.184M255.977 129.95l-18.782 3.61" stroke-width="1.2" stroke="#00f" stroke-miterlimit="10" fill="none"/><path d="M237.195 133.56l-18.78 3.608" stroke-width="1.2" stroke="#000" stroke-miterlimit="10" fill="none"/><path d="M249.977 120.45h12v19h-12zm0 0" fill="#fff"/><use xlink:href="#b" x="249.977" y="135.301" fill="#00f"/><path d="M218.414 137.168l-16.242 34.63M202.172 171.797l-38.113 3.25M199.125 181.09l-30.488 2.6M224.043 203.18l-21.87-31.383M164.06 175.047l-16.24 34.633M147.82 209.68l21.868 31.38M157.39 207.672l17.497 25.1M169.688 241.06l38.113-3.25M207.8 237.81l16.243-34.63M201.277 230.523l12.993-27.703" stroke-width="1.2" stroke="#000" stroke-miterlimit="10" fill="none"/></g></svg>
